res/skins/LateNight/palemoon/buttons/btn__beats_earlier.svg

<svg width="24" height="24" version="1.1" xmlns="http://www.w3.org/2000/svg">
  <g fill="none" stroke="#000" stroke-linecap="round" stroke-linejoin="round" stroke-width="1.6">
    <path d="m9 3v3h13v2h-13v3l-7-4z"/>
    <path d="m15 21h-2v-12h2z"/>
    <path d="m7 21h2v-9h-2z"/>
    <path d="m15 5h-2v-2h2z"/>
    <path d="m21 21h-2v-12h2z"/>
    <path d="m21 5h-2v-2h2z"/>
  </g>
  <path d="m9 3v3h13v2h-13v3l-7-4z" fill="#928476"/>
  <path d="m15 21h-2v-12h2z" fill="#3f3d3d"/>
  <path d="m7 21h2v-9h-2z" fill="#3f3d3d"/>
  <path d="m15 5h-2v-2h2z" fill="#3f3d3d"/>
  <path d="m21 21h-2v-12h2z" fill="#3f3d3d"/>
  <path d="m21 5h-2v-2h2z" fill="#3f3d3d"/>
</svg>

<?xml version="1.0" encoding="UTF-8" standalone="no"?>
<svg
   xmlns:dc="http://purl.org/dc/elements/1.1/"
   xmlns:cc="http://creativecommons.org/ns#"
   xmlns:rdf="http://www.w3.org/1999/02/22-rdf-syntax-ns#"
   xmlns:svg="http://www.w3.org/2000/svg"
   xmlns="http://www.w3.org/2000/svg"
   id="svg16"
   version="1.1"
   height="24"
   width="24">
  <metadata
     id="metadata22">
    <rdf:RDF>
      <cc:Work
         rdf:about="">
        <dc:format>image/svg+xml</dc:format>
        <dc:type
           rdf:resource="http://purl.org/dc/dcmitype/StillImage" />
        <dc:title></dc:title>
      </cc:Work>
    </rdf:RDF>
  </metadata>
  <defs
     id="defs20" />
  <g
     style="fill:none;stroke:#000000;stroke-opacity:1;stroke-width:1.6;stroke-miterlimit:4;stroke-dasharray:none;stroke-linejoin:round;stroke-linecap:round"
     id="g854">
    <path
       style="fill:none;stroke:#000000;stroke-width:1.6;stroke-linecap:round;stroke-linejoin:round;stroke-miterlimit:4;stroke-dasharray:none;stroke-opacity:1"
       d="M 9,3 V 6 L 22,6 V 8 H 9 v 3 L 2,7 Z"
       id="path4-3" />
    <path
       d="M 15,21 H 13 V 9 h 2 z"
       id="path2-6"
       style="fill:none;fill-opacity:1;stroke:#000000;stroke-opacity:1;stroke-width:1.6;stroke-miterlimit:4;stroke-dasharray:none;stroke-linejoin:round;stroke-linecap:round" />
    <path
       style="fill:none;fill-opacity:1;stroke:#000000;stroke-opacity:1;stroke-width:1.6;stroke-miterlimit:4;stroke-dasharray:none;stroke-linejoin:round;stroke-linecap:round"
       id="path6-7"
       d="M 7,21 H 9 V 12 H 7 Z" />
    <path
       style="fill:none;fill-opacity:1;stroke:#000000;stroke-opacity:1;stroke-width:1.6;stroke-miterlimit:4;stroke-dasharray:none;stroke-linejoin:round;stroke-linecap:round"
       id="path8-5"
       d="M 15,5 H 13 V 3 h 2 z" />
    <path
       style="fill:none;fill-opacity:1;stroke:#000000;stroke-opacity:1;stroke-width:1.6;stroke-miterlimit:4;stroke-dasharray:none;stroke-linejoin:round;stroke-linecap:round"
       id="path10-3"
       d="M 21,21 H 19 V 9 h 2 z" />
    <path
       style="fill:none;fill-opacity:1;stroke:#000000;stroke-opacity:1;stroke-width:1.6;stroke-miterlimit:4;stroke-dasharray:none;stroke-linejoin:round;stroke-linecap:round"
       id="path12-5"
       d="M 21,5 H 19 V 3 h 2 z" />
  </g>
  <path
     id="path4"
     fill="#928476"
     d="M 9,3 V 6 L 22,6 V 8 L 9,8 v 3 L 2,7 Z" />
  <path
     style="fill:#3f3d3d;fill-opacity:1"
     id="path2"
     d="M 15,21 H 13 V 9 h 2 z" />
  <path
     d="M 7,21 H 9 V 12 H 7 Z"
     id="path6"
     style="fill:#3f3d3d;fill-opacity:1" />
  <path
     d="M 15,5 H 13 V 3 h 2 z"
     id="path8"
     style="fill:#3f3d3d;fill-opacity:1" />
  <path
     d="M 21,21 H 19 V 9 h 2 z"
     id="path10"
     style="fill:#3f3d3d;fill-opacity:1" />
  <path
     d="M 21,5 H 19 V 3 h 2 z"
     id="path12"
     style="fill:#3f3d3d;fill-opacity:1" />
</svg>
